!!!COM: Robert Franz
!!!CNT: Deutscher
!!!TXO: Deutsche 
!!!OTL: "Du liebes Auge"
!!!OPS: Op. 16
!!!ONM: No. 1
!!!ONB: Original key: B major
!!!LYR: A. Roquette
!!!ENC: Brian Bice
!!!YOR: Vocal Album, G. Schirmer, Inc., 1907
!!!ODT: 1856/
!!NB: Vocal melody and text only encoded.
**kern	**silbe
*clefG2	*
*k[f#c#g#]	*
*M4/4	*
=1	=1
{4e	{Du
8a	lie-
8a	-bes
4a	Au-
4g#	-ge,
=2	=2
4f#	willst
4b	dich
4b	tau-
8a}	-chen}
{8a	{in
=3	=3
4dd	mei-
4cc#	-nes
4b	Aug's
4a	ge-
=4	=4
4g#	-hein-
4a	-ste
4b	Tie-
8g#}	-fe,}
{8e	{zu
=5	=5
4e	spa2-
4a	-hen,
4g#	wo
4f#	in
=6	=6
4e	blau-
4cc#	-en
4b	Gru2n-
8a}	-den}
{8a	{ver-
=7	=7
4g#	-bor-
4b	-gen
4ee	ei-
4e	-ne
=8	=8
(2g#	Per-
4b)	|
4d#	-le
=9	=9
4f#	schlie-
4e}	-fe?}
2r	.
=10	=10
{4e	{Du
8a	lie-
8a	-bes
4a	Au-
4g#	-ge!
=11	=11
4f#	tau-
4b	-che
4b	nei-
8a}	-der,}
{8a	{und
=12	=12
4dd	in
4cc#	die
4b	kla-
4a	-re
=13	=13
4g#	Tie-
4a	-fe
4b	drin-
8g#}	-ge}
{8e	{und
=14	=14
4e	la2ch-
4a	-le,
4a	wenn
4g#	ich
=15	=15
4f#	dir
4b	dein
4b	Bild-
8a	-niss
8cc#}	als}
=16	=16
{(8ee	{scho2n-
8dd)	|
4cc#	-ste
4b	Per-
4a	-le
=17	=17
(4cc#	wie-
8f#)	|
8g#	-der-
(4a	-brin-
4b)	|
=18	=18
2b}	-ge.}
2r	.
*-	*-
